svg/trivy.svg

<?xml version="1.0" encoding="UTF-8"?>
<svg xmlns="http://www.w3.org/2000/svg" xmlns:xlink="http://www.w3.org/1999/xlink" width="31.360001" height="32" viewBox="0 0 31.360001 32">
<path fill-rule="nonzero" fill="rgb(100%, 100%, 100%)" fill-opacity="1" d="M 0.121094 8.035156 L 0.121094 23.898438 L 13.707031 31.847656 L 27.339844 23.902344 L 27.339844 8.035156 L 13.730469 0.167969 Z M 0.121094 8.035156 "/>
<path fill-rule="nonzero" fill="rgb(3.137255%, 69.411765%, 83.529412%)" fill-opacity="1" d="M 23.382812 10.71875 L 20.441406 12.433594 C 20.84375 14.527344 20.472656 16.699219 19.402344 18.542969 C 18.339844 20.332031 16.5 21.738281 14.074219 22.613281 L 14.074219 26.617188 C 20.953125 23.980469 25.007812 17.054688 23.382812 10.71875 M 18.84375 18.210938 C 19.792969 16.570312 20.144531 14.65625 19.839844 12.785156 L 16.65625 14.621094 C 16.636719 16.195312 15.703125 17.601562 14.074219 18.503906 L 14.074219 21.933594 C 16.238281 21.109375 17.882812 19.824219 18.84375 18.210938 M 23.96875 10.378906 C 25.820312 17.1875 21.496094 24.589844 14.074219 27.3125 L 14.074219 31.636719 L 27.339844 23.902344 L 27.339844 8.414062 Z M 23.96875 10.378906 "/>
<path fill-rule="nonzero" fill="rgb(9.803922%, 1.568627%, 85.490196%)" fill-opacity="1" d="M 10.84375 14.601562 L 7.65625 12.757812 C 7.460938 14.613281 7.878906 16.480469 8.839844 18.078125 C 9.871094 19.828125 11.457031 21.183594 13.34375 21.929688 L 13.34375 18.511719 C 11.816406 17.8125 10.839844 16.28125 10.84375 14.601562 M 8.28125 18.410156 C 7.191406 16.609375 6.757812 14.488281 7.042969 12.40625 L 4.082031 10.695312 C 2.382812 17.25 6.332031 24.042969 13.34375 26.621094 L 13.34375 22.648438 C 11.214844 21.867188 9.425781 20.367188 8.28125 18.410156 M 3.5 10.359375 L 0.121094 8.410156 L 0.121094 23.898438 L 13.34375 31.636719 L 13.34375 27.3125 C 5.90625 24.695312 1.601562 17.28125 3.5 10.359375 "/>
<path fill-rule="nonzero" fill="rgb(100%, 78.823529%, 0%)" fill-opacity="1" d="M 18.632812 5.949219 C 13.601562 3.496094 7.359375 5.324219 4.351562 10.101562 L 7.226562 11.761719 C 9.378906 8.417969 13.679688 7.09375 17.074219 8.746094 C 18.414062 9.398438 19.519531 10.449219 20.242188 11.753906 L 23.105469 10.101562 C 23.085938 10.074219 23.066406 10.050781 23.050781 10.023438 C 22 8.269531 20.464844 6.855469 18.628906 5.949219 M 16.789062 9.332031 C 13.695312 7.824219 9.773438 9.035156 7.792969 12.085938 L 10.996094 13.9375 C 11.617188 12.984375 12.671875 12.402344 13.808594 12.382812 C 14.269531 12.382812 14.722656 12.488281 15.132812 12.691406 C 15.691406 12.960938 16.152344 13.398438 16.457031 13.941406 L 19.679688 12.082031 C 19.019531 10.890625 18.011719 9.929688 16.789062 9.332031 M 13.730469 0.171875 L 0.445312 7.847656 L 3.789062 9.777344 C 6.964844 4.703125 13.585938 2.761719 18.914062 5.363281 C 20.859375 6.320312 22.488281 7.820312 23.605469 9.679688 C 23.625 9.710938 23.648438 9.742188 23.671875 9.773438 L 27.015625 7.84375 Z M 13.730469 0.171875 "/>
<path fill-rule="nonzero" fill="rgb(100%, 26.666667%, 37.254902%)" fill-opacity="1" d="M 15.980469 14.394531 C 15.734375 13.910156 15.339844 13.519531 14.855469 13.273438 C 14.269531 12.980469 13.585938 12.945312 12.972656 13.183594 C 12.332031 13.402344 11.792969 13.84375 11.457031 14.429688 C 11.449219 14.53125 11.449219 14.628906 11.453125 14.730469 C 11.53125 16.0625 12.300781 17.257812 13.480469 17.878906 L 13.6875 17.980469 L 13.863281 17.882812 C 15.160156 17.15625 15.933594 16.007812 15.980469 14.730469 C 15.984375 14.617188 15.984375 14.507812 15.980469 14.394531 "/>
</svg>

<svg role="img" viewBox="0 0 31.36 32" height="32" width="31.36" xmlns="http://www.w3.org/2000/svg"><path d="M.121 8.035v15.863l13.586 7.95 13.633-7.946V8.035L13.73.168Zm0 0" fill="rgb(100%, 100%, 100%)"/><path d="m23.383 10.719-2.942 1.715a8.85 8.85 0 0 1-1.039 6.109c-1.062 1.789-2.902 3.195-5.328 4.07v4.004c6.88-2.637 10.934-9.562 9.309-15.898m-4.54 7.492a8.19 8.19 0 0 0 .997-5.426l-3.184 1.836c-.02 1.574-.953 2.98-2.582 3.883v3.43c2.164-.825 3.809-2.11 4.77-3.723m5.125-7.832c1.851 6.809-2.473 14.21-9.895 16.934v4.324l13.266-7.735V8.414Zm0 0" fill="rgb(3.137255%, 69.411765%, 83.529412%)"/><path d="m10.844 14.602-3.188-1.844a8.58 8.58 0 0 0 1.184 5.32 9.123 9.123 0 0 0 4.504 3.852v-3.418a4.29 4.29 0 0 1-2.5-3.91M8.28 18.41a9.165 9.165 0 0 1-1.238-6.004l-2.961-1.71c-1.7 6.554 2.25 13.347 9.262 15.925v-3.973A9.763 9.763 0 0 1 8.28 18.41M3.5 10.36.121 8.41v15.488l13.223 7.739v-4.324C5.906 24.695 1.602 17.28 3.5 10.359" fill="rgb(9.803922%, 1.568627%, 85.490196%)"/><path d="M18.633 5.95c-5.031-2.454-11.274-.626-14.281 4.152l2.875 1.66c2.152-3.344 6.453-4.668 9.847-3.016a7.252 7.252 0 0 1 3.168 3.008l2.863-1.652c-.02-.028-.039-.051-.054-.079a10.646 10.646 0 0 0-4.422-4.074m-1.84 3.383c-3.094-1.508-7.016-.297-8.996 2.754l3.203 1.851a3.428 3.428 0 0 1 2.813-1.554c.46 0 .914.105 1.324.308.558.27 1.02.707 1.324 1.25l3.223-1.859a6.64 6.64 0 0 0-2.89-2.75M13.73.172.445 7.848l3.344 1.93c3.176-5.075 9.797-7.016 15.125-4.415a11.29 11.29 0 0 1 4.691 4.317c.02.03.043.062.067.093l3.344-1.93Zm0 0" fill="rgb(100%, 78.823529%, 0%)"/><path d="M15.98 14.395a2.558 2.558 0 0 0-1.125-1.122 2.326 2.326 0 0 0-1.882-.09c-.641.22-1.18.66-1.516 1.247a2.503 2.503 0 0 0-.004.3 3.811 3.811 0 0 0 2.027 3.149l.207.101.176-.097c1.297-.727 2.07-1.875 2.117-3.153a4.817 4.817 0 0 0 0-.335" fill="rgb(100%, 26.666667%, 37.254902%)"/></svg>
